Newaita-dark/apps/48/bzr-explorer.svg

<svg height="48" viewBox="0 0 48 48" width="48" xmlns="http://www.w3.org/2000/svg" xmlns:xlink="http://www.w3.org/1999/xlink"><linearGradient id="a"><stop offset="0" stop-opacity=".313726"/><stop offset=".222222" stop-opacity=".27451"/><stop offset="1" stop-opacity="0"/></linearGradient><radialGradient id="b" cx="450.908936" cy="189.579361" gradientTransform="matrix(.00000026 -.117199 -.210958 -.00000015 66.784728 95.392994)" gradientUnits="userSpaceOnUse" r="21.166656" xlink:href="#a"/><radialGradient id="c" cx="450.908936" cy="189.579361" gradientTransform="matrix(-.00000026 .117199 .210958 .00000015 -19.155178 -11.291223)" gradientUnits="userSpaceOnUse" r="21.166656" xlink:href="#a"/><radialGradient id="d" cx="450.908936" cy="189.579361" gradientTransform="matrix(-.00000026 -.117199 .210958 -.00000015 -19.155178 95.392994)" gradientUnits="userSpaceOnUse" r="21.166656" xlink:href="#a"/><radialGradient id="e" cx="450.908936" cy="189.579361" gradientTransform="matrix(.00000026 .117199 -.210958 .00000015 66.784725 -11.291224)" gradientUnits="userSpaceOnUse" r="21.166656" xlink:href="#a"/><linearGradient id="f" gradientTransform="matrix(.0200401 0 0 .093759 18.698079 20.158175)" gradientUnits="userSpaceOnUse" x1="255.323059" x2="255.323044" y1="233.5" y2="254.666656"><stop offset="0" stop-opacity=".27451"/><stop offset="1" stop-opacity="0"/></linearGradient><linearGradient id="g" gradientUnits="userSpaceOnUse" x1="23.814786" x2="23.814786" y1="4.34415649995" y2="42.0509015"><stop offset="0" stop-color="#e0e0e0"/><stop offset="1" stop-color="#bdbdbd"/></linearGradient><linearGradient id="h" gradientTransform="matrix(.0662976 .0662976 -.0662976 .0662976 0 20.158175)" gradientUnits="userSpaceOnUse" x1="344.714539" x2="60.339775" y1="-14.495687" y2="-298.870453"><stop offset="0" stop-color="#ffca28"/><stop offset="1" stop-color="#ffd54f"/></linearGradient><linearGradient id="i" gradientUnits="userSpaceOnUse" x1="23.814786" x2="23.814786" y1="38.08177100005" y2="8.3132869999"><stop offset="0" stop-color="#424242"/><stop offset="1" stop-color="#616161"/></linearGradient><path d="m27.289062 42.050781h3.96875v-1.984375h-3.96875zm0 0" fill="url(#b)"/><path d="m20.339844 42.050781h-3.96875v1.984375h3.96875zm0 0" fill="url(#c)"/><path d="m20.339844 42.050781h-3.96875v-1.984375h3.96875zm0 0" fill="url(#d)"/><path d="m27.289062 42.050781h3.96875v1.984375h-3.96875zm0 0" fill="url(#e)"/><path d="m20.339844 41.554688h6.949218v2.480468h-6.949218zm0 0" fill="url(#f)"/><path d="m23.816406 4.34375c10.410156 0 18.851563 8.441406 18.851563 18.855469 0 10.410156-8.441407 18.851562-18.851563 18.851562-10.414062 0-18.855468-8.441406-18.855468-18.851562 0-10.414063 8.441406-18.855469 18.855468-18.855469zm0 0" fill="url(#g)"/><path d="m38.960938 23.566406c-.054688.355469-.214844.699219-.492188.972656l-13.433594 13.433594c-.675781.675782-1.765625.675782-2.441406 0l-13.433594-13.433594c-.273437-.273437-.4375-.617187-.488281-.972656-.078125.519532.085937 1.066406.488281 1.46875l13.433594 13.433594c.675781.675781 1.765625.675781 2.441406 0l13.433594-13.433594c.402344-.402344.566406-.949218.492188-1.46875zm0 0" fill="#fff" fill-opacity=".588235"/><path d="m23.816406 42.050781c-10.445312 0-18.855468-8.410156-18.855468-18.851562 0-.0625 0-.125 0-.1875.101562 10.359375 8.472656 18.667969 18.855468 18.667969 10.382813 0 18.753906-8.308594 18.851563-18.667969v.1875c0 10.441406-8.410157 18.851562-18.851563 18.851562zm0 0" fill-opacity=".196078"/><path d="m23.816406 4.34375c-10.445312 0-18.855468 8.410156-18.855468 18.855469 0 .078125 0 .15625.003906.234375.136718-10.324219 8.492187-18.59375 18.851562-18.59375 10.355469 0 18.710938 8.269531 18.851563 18.59375 0-.078125 0-.15625 0-.234375 0-10.445313-8.410157-18.855469-18.851563-18.855469zm0 0" fill="#fff" fill-opacity=".392157"/><path d="m254.017409-168.671091c111.031064 0 201.064133 90.033069 201.064133 201.105795 0 111.031064-90.033069 201.064133-201.064133 201.064133-111.072726 0-201.105795-90.033069-201.105795-201.064133 0-111.072726 90.033069-201.105795 201.105795-201.105795zm0 0" fill="none" stroke="#333" stroke-linecap="round" stroke-width="3" transform="matrix(.093759 0 0 .093759 0 20.158175)"/><path d="m25.035156 8.542969 13.433594 13.433593c.675781.675782.675781 1.769532 0 2.441407l-13.433594 13.433593c-.671875.675782-1.765625.675782-2.441406 0l-13.433594-13.433593c-.675781-.671875-.675781-1.765625 0-2.441407l13.433594-13.433593c.675781-.675781 1.769531-.675781 2.441406 0zm0 0" fill="url(#h)"/><path d="m23.816406 8.1875c-.441406 0-.882812.171875-1.222656.507812l-13.433594 13.433594c-.386718.386719-.550781.90625-.496094 1.410156.039063-.378906.203126-.746093.496094-1.035156l13.433594-13.433594c.675781-.679687 1.765625-.679687 2.441406 0l13.433594 13.433594c.292969.289063.457031.65625.5 1.035156.050781-.503906-.113281-1.023437-.5-1.410156l-13.433594-13.433594c-.335937-.335937-.777344-.507812-1.21875-.507812zm0 0" fill-opacity=".235294"/><path d="m101.209938-276.407948h202.625668c10.19315 0 18.441941 8.248791 18.412481 18.412481v202.625668c.02946 10.16369-8.219331 18.412481-18.412481 18.412481h-202.625668c-10.16369.02946-18.412481-8.219331-18.412481-18.412481v-202.625668c0-10.19315 8.248791-18.441941 18.412481-18.412481zm0 0" fill="none" stroke="#212121" stroke-linecap="round" stroke-linejoin="round" stroke-width="3" transform="matrix(.0662976 .0662976 -.0662976 .0662976 0 20.158175)"/><path d="m23.789062 12.714844c-.195312.007812-.367187.113281-.460937.28125l-3.972656 6.945312c-.210938.375.058593.839844.488281.839844h2.417969v11.347656c0 .308594.25.5625.5625.5625h1.984375c.308594 0 .5625-.253906.5625-.5625v-6.339844c.875.140626 1.246094.617188 1.515625 1.328126.316406.847656.335937 2.035156.335937 3.027343 0 .308594.25.5625.5625.5625h1.984375c.308594 0 .5625-.253906.5625-.5625 0-.992187.015625-2.804687-.664062-4.433593-.628907-1.511719-1.984375-2.84375-4.296875-3.039063v-1.890625h2.414062c.429688 0 .703125-.464844.488282-.839844l-3.96875-6.945312c-.105469-.183594-.304688-.292969-.515626-.28125zm0 0" fill="url(#i)"/><path d="m19.378906 20.535156-.023437.039063c-.210938.375.058593.839843.488281.839843h2.417969v-.632812h-2.417969c-.199219 0-.367188-.101562-.464844-.246094zm8.871094 0c-.097656.144532-.265625.246094-.464844.246094h-2.414062v1.890625-1.257813h2.414062c.429688 0 .703125-.464843.488282-.839843zm-2.878906 5.253906v.632813c.875.136719 1.246094.617187 1.515625 1.328125.316406.847656.335937 2.035156.335937 3.027344 0 .308594.25.5625.5625.5625h1.984375c.308594 0 .5625-.253906.5625-.5625 0-.171875 0-.367188-.003906-.582032-.023437.285157-.265625.511719-.558594.511719h-1.984375c-.3125 0-.5625-.253906-.5625-.5625 0-.992187-.019531-2.179687-.335937-3.027343-.269531-.710938-.640625-1.1875-1.515625-1.328126zm-3.109375 6.339844v.632813c0 .308593.25.5625.5625.5625h1.984375c.308594 0 .5625-.253907.5625-.5625v-.632813c0 .308594-.253906.5625-.5625.5625h-1.984375c-.3125 0-.5625-.253906-.5625-.5625zm0 0" fill-opacity=".235294"/><path d="m23.828125 12.710938c-.015625 0-.027344 0-.039063.003906-.195312.007812-.367187.113281-.460937.28125l-3.972656 6.945312c-.105469.1875-.089844.398438.003906.558594l3.96875-6.941406c.09375-.167969.265625-.273438.460937-.285156.210938-.007813.410157.101562.515626.285156l3.964843 6.941406c.097657-.160156.109375-.371094.003907-.558594l-3.96875-6.945312c-.101563-.171875-.28125-.28125-.476563-.285156zm1.542969 9.960937v.5625c2.3125.191406 3.667968 1.527344 4.296875 3.039063.574219 1.375.652343 2.878906.660156 3.914062.003906-.015625.003906-.03125.003906-.042969 0-.992187.015625-2.804687-.664062-4.433593-.628907-1.511719-1.984375-2.84375-4.296875-3.039063zm0 0" fill="#fff" fill-opacity=".235294"/><path d="m253.72577-79.38795c-2.083134.083325-3.916292 1.208218-4.916197 2.999713l-42.370954 74.07626c-2.249785 3.999618.624941 8.957478 5.207836 8.957478h25.789204v121.030108c0 3.291353 2.666412 5.999428 5.999427 5.999428h21.164646c3.291352 0 5.999427-2.708075 5.999427-5.999428v-67.618542c9.332442 1.499856 13.290398 6.582704 16.165123 14.165314 3.374678 9.040803 3.582991 21.70626 3.582991 32.288583 0 3.291352 2.666412 5.999427 5.999427 5.999427h21.164646c3.291352 0 5.999427-2.708075 5.999427-5.999427 0-10.582323.166651-29.91381-7.082657-47.287151-6.707693-16.12346-21.164646-30.330437-45.828957-32.413571v-20.164741h25.747541c4.582896 0 7.499284-4.95786 5.207836-8.957478l-42.329291-74.07626c-1.124892-1.958146-3.249689-3.124701-5.499475-2.999713zm0 0" fill="none" stroke="#212121" stroke-linecap="round" stroke-linejoin="round" stroke-width="3" transform="matrix(.093759 0 0 .093759 0 20.158175)"/></svg>

<?xml version="1.0" encoding="UTF-8"?>
<svg xmlns="http://www.w3.org/2000/svg" xmlns:xlink="http://www.w3.org/1999/xlink" width="48px" height="48px" viewBox="0 0 48 48" version="1.1">
<defs>
<radialGradient id="radial0" gradientUnits="userSpaceOnUse" cx="450.908936" cy="189.579361" fx="450.908936" fy="189.579361" r="21.166656" gradientTransform="matrix(0.000000261256,-0.117199,-0.210958,-0.000000152308,66.784728,95.392994)">
<stop offset="0" style="stop-color:rgb(0%,0%,0%);stop-opacity:0.313726;"/>
<stop offset="0.222222" style="stop-color:rgb(0%,0%,0%);stop-opacity:0.27451;"/>
<stop offset="1" style="stop-color:rgb(0%,0%,0%);stop-opacity:0;"/>
</radialGradient>
<radialGradient id="radial1" gradientUnits="userSpaceOnUse" cx="450.908936" cy="189.579361" fx="450.908936" fy="189.579361" r="21.166656" gradientTransform="matrix(-0.000000261256,0.117199,0.210958,0.000000152308,-19.155178,-11.291223)">
<stop offset="0" style="stop-color:rgb(0%,0%,0%);stop-opacity:0.313726;"/>
<stop offset="0.222222" style="stop-color:rgb(0%,0%,0%);stop-opacity:0.27451;"/>
<stop offset="1" style="stop-color:rgb(0%,0%,0%);stop-opacity:0;"/>
</radialGradient>
<radialGradient id="radial2" gradientUnits="userSpaceOnUse" cx="450.908936" cy="189.579361" fx="450.908936" fy="189.579361" r="21.166656" gradientTransform="matrix(-0.000000261256,-0.117199,0.210958,-0.000000152308,-19.155178,95.392994)">
<stop offset="0" style="stop-color:rgb(0%,0%,0%);stop-opacity:0.313726;"/>
<stop offset="0.222222" style="stop-color:rgb(0%,0%,0%);stop-opacity:0.27451;"/>
<stop offset="1" style="stop-color:rgb(0%,0%,0%);stop-opacity:0;"/>
</radialGradient>
<radialGradient id="radial3" gradientUnits="userSpaceOnUse" cx="450.908936" cy="189.579361" fx="450.908936" fy="189.579361" r="21.166656" gradientTransform="matrix(0.000000261256,0.117199,-0.210958,0.000000152308,66.784725,-11.291224)">
<stop offset="0" style="stop-color:rgb(0%,0%,0%);stop-opacity:0.313726;"/>
<stop offset="0.222222" style="stop-color:rgb(0%,0%,0%);stop-opacity:0.27451;"/>
<stop offset="1" style="stop-color:rgb(0%,0%,0%);stop-opacity:0;"/>
</radialGradient>
<linearGradient id="linear0" gradientUnits="userSpaceOnUse" x1="255.323059" y1="233.5" x2="255.323044" y2="254.666656" gradientTransform="matrix(0.0200401,0,0,0.093759,18.698079,20.158175)">
<stop offset="0" style="stop-color:rgb(0%,0%,0%);stop-opacity:0.27451;"/>
<stop offset="1" style="stop-color:rgb(0%,0%,0%);stop-opacity:0;"/>
</linearGradient>
<linearGradient id="linear1" gradientUnits="userSpaceOnUse" x1="254" y1="-168.666672" x2="254" y2="233.5" gradientTransform="matrix(0.093759,0,0,0.093759,0.000000246117,20.158175)">
<stop offset="0" style="stop-color:rgb(87.843138%,87.843138%,87.843138%);stop-opacity:1;"/>
<stop offset="1" style="stop-color:rgb(74.117649%,74.117649%,74.117649%);stop-opacity:1;"/>
</linearGradient>
<linearGradient id="linear2" gradientUnits="userSpaceOnUse" x1="344.714539" y1="-14.495687" x2="60.339775" y2="-298.870453" gradientTransform="matrix(0.0662976,0.0662976,-0.0662976,0.0662976,0,20.158175)">
<stop offset="0" style="stop-color:rgb(100%,79.215688%,15.686275%);stop-opacity:1;"/>
<stop offset="1" style="stop-color:rgb(100%,83.529413%,30.980393%);stop-opacity:1;"/>
</linearGradient>
<linearGradient id="linear3" gradientUnits="userSpaceOnUse" x1="254" y1="191.166672" x2="254" y2="-126.333344" gradientTransform="matrix(0.093759,0,0,0.093759,0,20.158175)">
<stop offset="0" style="stop-color:rgb(25.882354%,25.882354%,25.882354%);stop-opacity:1;"/>
<stop offset="1" style="stop-color:rgb(38.039216%,38.039216%,38.039216%);stop-opacity:1;"/>
</linearGradient>
</defs>
<g id="surface1">
<path style=" stroke:none;fill-rule:nonzero;fill:url(#radial0);" d="M 27.289062 42.050781 L 31.257812 42.050781 L 31.257812 40.066406 L 27.289062 40.066406 Z M 27.289062 42.050781 "/>
<path style=" stroke:none;fill-rule:nonzero;fill:url(#radial1);" d="M 20.339844 42.050781 L 16.371094 42.050781 L 16.371094 44.035156 L 20.339844 44.035156 Z M 20.339844 42.050781 "/>
<path style=" stroke:none;fill-rule:nonzero;fill:url(#radial2);" d="M 20.339844 42.050781 L 16.371094 42.050781 L 16.371094 40.066406 L 20.339844 40.066406 Z M 20.339844 42.050781 "/>
<path style=" stroke:none;fill-rule:nonzero;fill:url(#radial3);" d="M 27.289062 42.050781 L 31.257812 42.050781 L 31.257812 44.035156 L 27.289062 44.035156 Z M 27.289062 42.050781 "/>
<path style=" stroke:none;fill-rule:nonzero;fill:url(#linear0);" d="M 20.339844 41.554688 L 27.289062 41.554688 L 27.289062 44.035156 L 20.339844 44.035156 Z M 20.339844 41.554688 "/>
<path style=" stroke:none;fill-rule:nonzero;fill:url(#linear1);" d="M 23.816406 4.34375 C 34.226562 4.34375 42.667969 12.785156 42.667969 23.199219 C 42.667969 33.609375 34.226562 42.050781 23.816406 42.050781 C 13.402344 42.050781 4.960938 33.609375 4.960938 23.199219 C 4.960938 12.785156 13.402344 4.34375 23.816406 4.34375 Z M 23.816406 4.34375 "/>
<path style=" stroke:none;fill-rule:nonzero;fill:rgb(100%,100%,100%);fill-opacity:0.588235;" d="M 38.960938 23.566406 C 38.90625 23.921875 38.746094 24.265625 38.46875 24.539062 L 25.035156 37.972656 C 24.359375 38.648438 23.269531 38.648438 22.59375 37.972656 L 9.160156 24.539062 C 8.886719 24.265625 8.722656 23.921875 8.671875 23.566406 C 8.59375 24.085938 8.757812 24.632812 9.160156 25.035156 L 22.59375 38.46875 C 23.269531 39.144531 24.359375 39.144531 25.035156 38.46875 L 38.46875 25.035156 C 38.871094 24.632812 39.035156 24.085938 38.960938 23.566406 Z M 38.960938 23.566406 "/>
<path style=" stroke:none;fill-rule:nonzero;fill:rgb(0%,0%,0%);fill-opacity:0.196078;" d="M 23.816406 42.050781 C 13.371094 42.050781 4.960938 33.640625 4.960938 23.199219 C 4.960938 23.136719 4.960938 23.074219 4.960938 23.011719 C 5.0625 33.371094 13.433594 41.679688 23.816406 41.679688 C 34.199219 41.679688 42.570312 33.371094 42.667969 23.011719 C 42.667969 23.074219 42.667969 23.136719 42.667969 23.199219 C 42.667969 33.640625 34.257812 42.050781 23.816406 42.050781 Z M 23.816406 42.050781 "/>
<path style=" stroke:none;fill-rule:nonzero;fill:rgb(100%,100%,100%);fill-opacity:0.392157;" d="M 23.816406 4.34375 C 13.371094 4.34375 4.960938 12.753906 4.960938 23.199219 C 4.960938 23.277344 4.960938 23.355469 4.964844 23.433594 C 5.101562 13.109375 13.457031 4.839844 23.816406 4.839844 C 34.171875 4.839844 42.527344 13.109375 42.667969 23.433594 C 42.667969 23.355469 42.667969 23.277344 42.667969 23.199219 C 42.667969 12.753906 34.257812 4.34375 23.816406 4.34375 Z M 23.816406 4.34375 "/>
<path style="fill:none;stroke-width:3;stroke-linecap:round;stroke-linejoin:miter;stroke:rgb(20%,20%,20%);stroke-opacity:1;stroke-miterlimit:4;" d="M 254.017409 -168.671091 C 365.048473 -168.671091 455.081542 -78.638022 455.081542 32.434704 C 455.081542 143.465768 365.048473 233.498837 254.017409 233.498837 C 142.944683 233.498837 52.911614 143.465768 52.911614 32.434704 C 52.911614 -78.638022 142.944683 -168.671091 254.017409 -168.671091 Z M 254.017409 -168.671091 " transform="matrix(0.093759,0,0,0.093759,0,20.158175)"/>
<path style=" stroke:none;fill-rule:nonzero;fill:url(#linear2);" d="M 25.035156 8.542969 L 38.46875 21.976562 C 39.144531 22.652344 39.144531 23.746094 38.46875 24.417969 L 25.035156 37.851562 C 24.363281 38.527344 23.269531 38.527344 22.59375 37.851562 L 9.160156 24.417969 C 8.484375 23.746094 8.484375 22.652344 9.160156 21.976562 L 22.59375 8.542969 C 23.269531 7.867188 24.363281 7.867188 25.035156 8.542969 Z M 25.035156 8.542969 "/>
<path style=" stroke:none;fill-rule:nonzero;fill:rgb(0%,0%,0%);fill-opacity:0.235294;" d="M 23.816406 8.1875 C 23.375 8.1875 22.933594 8.359375 22.59375 8.695312 L 9.160156 22.128906 C 8.773438 22.515625 8.609375 23.035156 8.664062 23.539062 C 8.703125 23.160156 8.867188 22.792969 9.160156 22.503906 L 22.59375 9.070312 C 23.269531 8.390625 24.359375 8.390625 25.035156 9.070312 L 38.46875 22.503906 C 38.761719 22.792969 38.925781 23.160156 38.96875 23.539062 C 39.019531 23.035156 38.855469 22.515625 38.46875 22.128906 L 25.035156 8.695312 C 24.699219 8.359375 24.257812 8.1875 23.816406 8.1875 Z M 23.816406 8.1875 "/>
<path style="fill:none;stroke-width:3;stroke-linecap:round;stroke-linejoin:round;stroke:rgb(12.941177%,12.941177%,12.941177%);stroke-opacity:1;stroke-miterlimit:4;" d="M 101.209938 -276.407948 L 303.835606 -276.407948 C 314.028756 -276.407948 322.277547 -268.159157 322.248087 -257.995467 L 322.248087 -55.369799 C 322.277547 -45.206109 314.028756 -36.957318 303.835606 -36.957318 L 101.209938 -36.957318 C 91.046248 -36.927858 82.797457 -45.176649 82.797457 -55.369799 L 82.797457 -257.995467 C 82.797457 -268.188617 91.046248 -276.437408 101.209938 -276.407948 Z M 101.209938 -276.407948 " transform="matrix(0.0662976,0.0662976,-0.0662976,0.0662976,0,20.158175)"/>
<path style=" stroke:none;fill-rule:nonzero;fill:url(#linear3);" d="M 23.789062 12.714844 C 23.59375 12.722656 23.421875 12.828125 23.328125 12.996094 L 19.355469 19.941406 C 19.144531 20.316406 19.414062 20.78125 19.84375 20.78125 L 22.261719 20.78125 L 22.261719 32.128906 C 22.261719 32.4375 22.511719 32.691406 22.824219 32.691406 L 24.808594 32.691406 C 25.117188 32.691406 25.371094 32.4375 25.371094 32.128906 L 25.371094 25.789062 C 26.246094 25.929688 26.617188 26.40625 26.886719 27.117188 C 27.203125 27.964844 27.222656 29.152344 27.222656 30.144531 C 27.222656 30.453125 27.472656 30.707031 27.785156 30.707031 L 29.769531 30.707031 C 30.078125 30.707031 30.332031 30.453125 30.332031 30.144531 C 30.332031 29.152344 30.347656 27.339844 29.667969 25.710938 C 29.039062 24.199219 27.683594 22.867188 25.371094 22.671875 L 25.371094 20.78125 L 27.785156 20.78125 C 28.214844 20.78125 28.488281 20.316406 28.273438 19.941406 L 24.304688 12.996094 C 24.199219 12.8125 24 12.703125 23.789062 12.714844 Z M 23.789062 12.714844 "/>
<path style=" stroke:none;fill-rule:nonzero;fill:rgb(0%,0%,0%);fill-opacity:0.235294;" d="M 19.378906 20.535156 L 19.355469 20.574219 C 19.144531 20.949219 19.414062 21.414062 19.84375 21.414062 L 22.261719 21.414062 L 22.261719 20.78125 L 19.84375 20.78125 C 19.644531 20.78125 19.476562 20.679688 19.378906 20.535156 Z M 28.25 20.535156 C 28.152344 20.679688 27.984375 20.78125 27.785156 20.78125 L 25.371094 20.78125 L 25.371094 22.671875 L 25.371094 21.414062 L 27.785156 21.414062 C 28.214844 21.414062 28.488281 20.949219 28.273438 20.574219 Z M 25.371094 25.789062 L 25.371094 26.421875 C 26.246094 26.558594 26.617188 27.039062 26.886719 27.75 C 27.203125 28.597656 27.222656 29.785156 27.222656 30.777344 C 27.222656 31.085938 27.472656 31.339844 27.785156 31.339844 L 29.769531 31.339844 C 30.078125 31.339844 30.332031 31.085938 30.332031 30.777344 C 30.332031 30.605469 30.332031 30.410156 30.328125 30.195312 C 30.304688 30.480469 30.0625 30.707031 29.769531 30.707031 L 27.785156 30.707031 C 27.472656 30.707031 27.222656 30.453125 27.222656 30.144531 C 27.222656 29.152344 27.203125 27.964844 26.886719 27.117188 C 26.617188 26.40625 26.246094 25.929688 25.371094 25.789062 Z M 22.261719 32.128906 L 22.261719 32.761719 C 22.261719 33.070312 22.511719 33.324219 22.824219 33.324219 L 24.808594 33.324219 C 25.117188 33.324219 25.371094 33.070312 25.371094 32.761719 L 25.371094 32.128906 C 25.371094 32.4375 25.117188 32.691406 24.808594 32.691406 L 22.824219 32.691406 C 22.511719 32.691406 22.261719 32.4375 22.261719 32.128906 Z M 22.261719 32.128906 "/>
<path style=" stroke:none;fill-rule:nonzero;fill:rgb(100%,100%,100%);fill-opacity:0.235294;" d="M 23.828125 12.710938 C 23.8125 12.710938 23.800781 12.710938 23.789062 12.714844 C 23.59375 12.722656 23.421875 12.828125 23.328125 12.996094 L 19.355469 19.941406 C 19.25 20.128906 19.265625 20.339844 19.359375 20.5 L 23.328125 13.558594 C 23.421875 13.390625 23.59375 13.285156 23.789062 13.273438 C 24 13.265625 24.199219 13.375 24.304688 13.558594 L 28.269531 20.5 C 28.367188 20.339844 28.378906 20.128906 28.273438 19.941406 L 24.304688 12.996094 C 24.203125 12.824219 24.023438 12.714844 23.828125 12.710938 Z M 25.371094 22.671875 L 25.371094 23.234375 C 27.683594 23.425781 29.039062 24.761719 29.667969 26.273438 C 30.242188 27.648438 30.320312 29.152344 30.328125 30.1875 C 30.332031 30.171875 30.332031 30.15625 30.332031 30.144531 C 30.332031 29.152344 30.347656 27.339844 29.667969 25.710938 C 29.039062 24.199219 27.683594 22.867188 25.371094 22.671875 Z M 25.371094 22.671875 "/>
<path style="fill:none;stroke-width:3;stroke-linecap:round;stroke-linejoin:round;stroke:rgb(12.941177%,12.941177%,12.941177%);stroke-opacity:1;stroke-miterlimit:4;" d="M 253.72577 -79.38795 C 251.642636 -79.304625 249.809478 -78.179732 248.809573 -76.388237 L 206.438619 -2.311977 C 204.188834 1.687641 207.06356 6.645501 211.646455 6.645501 L 237.435659 6.645501 L 237.435659 127.675609 C 237.435659 130.966962 240.102071 133.675037 243.435086 133.675037 L 264.599732 133.675037 C 267.891084 133.675037 270.599159 130.966962 270.599159 127.675609 L 270.599159 60.057067 C 279.931601 61.556923 283.889557 66.639771 286.764282 74.222381 C 290.13896 83.263184 290.347273 95.928641 290.347273 106.510964 C 290.347273 109.802316 293.013685 112.510391 296.3467 112.510391 L 317.511346 112.510391 C 320.802698 112.510391 323.510773 109.802316 323.510773 106.510964 C 323.510773 95.928641 323.677424 76.597154 316.428116 59.223813 C 309.720423 43.100353 295.26347 28.893376 270.599159 26.810242 L 270.599159 6.645501 L 296.3467 6.645501 C 300.929596 6.645501 303.845984 1.687641 301.554536 -2.311977 L 259.225245 -76.388237 C 258.100353 -78.346383 255.975556 -79.512938 253.72577 -79.38795 Z M 253.72577 -79.38795 " transform="matrix(0.093759,0,0,0.093759,0,20.158175)"/>
</g>
</svg>
